X:1
T:Truth
T:House of Black and White (Intermediate - Advanced Piano Solo) Game Of Thrones OST Season 5 Episode 6 
T: Composed by Ramin Djawadi Piano arrangement by Nicolas Del Gallo Full playthrough and more at https://www.youtube.com/c/NDGmusic If you want to donate, please check out my Patreon ☺ https://www.patreon.com/ndg 
%%score { ( 1 4 6 ) | ( 2 3 5 ) }
L:1/8
Q:1/4=85
M:4/4
K:F
V:1 treble nm="Piano" snm="Pno."
V:4 treble 
V:6 treble 
V:2 bass 
V:3 bass 
V:5 bass 
V:1
 z8 | [Ff]4 [^F^f]4 | [Ff]8 | z8 | [Ff]4 [Gg]4 | [Ff]8 | z8 | [Aa]4 [Bb]4 | [Aa]8 | z8 | %10
 [cc']4 [Bb]4 | [Aa]8 | z8 | [dd']4 [cdc']4 | [Ada]8 ||[K:D] [FBf]4 [=F_B=f]4 | [DGd]8- | [DGd]8 | %18
 [FBf]4 [=F_B=f]4 | [DGd]4 [C-Gc-]4 | [CFc]4 [^A^a]4- | [Aa]8 | !arpeggio![FBf]4 [EAe]4 | %23
 [B,EB]8- | [B,EB]8 | [FBf]4 [Ee]4 | [B,GB]8- | [B,GB]8 | [C-Gc-]4 [cc']2 [dd']2 | [CFc]4 [cc']4- | %30
 [cc']8 | [B,C^D]8- | [B,CD]8- | [B,CD]8 | [^d^d']8- | [dd']8- | [dd']8- | [dd']8 |: %38
[Q:1/4=83] B,CDE B,CDE | B,CDE B,CD"^3x"E :|[M:6/4] z CC z EB, z CD z B,C | %41
[M:9/4] z DE B,CCDE B,CCDE B,CCDE |[M:6/4] z CC z E B,CCDE B,C |[M:9/4] z DE B,CCDE B,CCDE B,CCDE | %44
[M:6/4] B,CCDE B,CCDE B,C | z DE z CC z EB, z CD |[M:6/4] z B,CCDE B,CCDE B, | CCDE B,CCDE B,CC | %48
 z EB, z CDE B,CCDE |[M:9/4] B,CCDE B,CCDE B,CCDE B,CC |[M:6/4] DE B,CCDE B,CCDE | %51
[M:6/4] B,CCDE B,CCDE B,C | CDE B,CCDE B,CDE |[M:4/4] B,CDE B,CDE | B,CDE B,CDE | B,CDE B,CDE | %56
 B,CDE B,CDE |[M:10/8] B,CCDE B,CCDE | B,CCDE B,CCDE |[M:4/4] B,CDE B,CDE | B,CDE B,CDE | %61
 B,CDE B,CDE | B,CCDE B,CD |E B,CCDE B,C | CDE B,CCDE | B,CCDE B,CC | DE B,CCD E2- | E8 |] %68
V:2
 [D,,,D,,D,]8 | D,8- | D,8 | D,,,8 | z4 D,4- | D,8 | [D,,,D,,]8 | z8 | D,8 | !>![D,,,D,,D,]8 | %10
 D,8 | D,8 | D,,,8 | D4 [CD]4 | [A,D]8 ||[K:D] [B,,,,B,,,]8- | [B,,,,B,,,]8- | [B,,,,B,,,]8 | %18
 [B,,,,B,,,]8- | [B,,,,B,,,]8- | [B,,,,B,,,]8- | [B,,,,B,,,]8 | [G,,,G,,]8- | [G,,,G,,]8- | %24
 [G,,,G,,]8- | [G,,,G,,]8 | [G,,G,-]8 | G,8 | [B,,,,B,,,]8- | [B,,,,B,,,]8- | [B,,,,B,,,]8 | %31
"^Sost" [B,,,,B,,,]8 | [B,,F,]4 [^A,,=F,]4 | [G,,D,]8 | [B,F]4 [_B,=F]4 | [G,D]4 [G,C]4 | [F,C]8 | %37
 B,8 |: [B,,,,B,,,]8 | z8 :|[M:6/4][K:treble]!8vb(! [B,,,,B,,,]12!8vb)! | %41
[M:9/4]!8vb(! [G,,,G,,]12-!8vb)! [G,,G,]6 |[M:6/4]!8vb(! [G,,,G,,]12!8vb)! | %43
[M:9/4]!8vb(! [F,,,F,,]12-!8vb)! [F,F]6 |[M:6/4]!8vb(! [=F,,,=F,,]12!8vb)! | %45
!8vb(! [B,,,,B,,,]12!8vb)! |[M:6/4]!8vb(! [B,,,,B,,,]12-!8vb)! | %47
 [B,,B,]2!8vb(! [^A,,,,^A,,,]8-!8vb)! [A,,A,]2 |!8vb(! [A,,,A,,]3 [G,,,G,,]3-!8vb)! [G,,G,]6 | %49
[M:9/4]!8vb(! [B,,,F,,B,,]12-!8vb)! [B,,F,B,]6 |[M:6/4] [B,,B,]12- |[M:6/4] [B,,B,]12- | %52
 [B,,B,]12 |[M:4/4][K:bass] [B,,,B,,]8- | [B,,,,B,,,B,,]8- | [B,,,,B,,,B,,]8- | %56
 [B,,,,-B,,,-B,,-^A,]8 |[M:10/8] [B,,,,B,,,B,,]8- [B,,,,B,,,B,,]2 | [B,,,,B,,,]8 z2 |[M:4/4] z8 | %60
 z8 | z8 | z8 | [B,,,,B,,,]8 | z7 [B,,,,B,,,]- | [B,,,,B,,,]8- | [B,,,,B,,,]6 B,,2- | B,,8 |] %68
V:3
 x8 | A,4 =B,4 | A,8 | x8 | A,4 =B,4 | A,8 | x8 | D4 _E4 | D8 | x8 | _E4 D4 | D8 | x8 | x8 | x8 || %15
[K:D] z4 B,4 | B,,8- | B,,8 | z8 | B,4 B,,4 | x8 | x8 | B,4 A,4 | E,8- | E,8 | B,4 A,4 | x8 | x8 | %28
 z4 G,4 | F,4 [G,,,G,,]4 | [F,,,F,,]8 | z8 | x8 | x8 | x8 | x8 | x8 | x8 |: x8 | x8 :| %40
[M:6/4][K:treble]!8vb(! z!8vb)! fedc gfedc gf |[M:9/4]!8vb(! z!8vb)! dc gfedc gfedc gfedc | %42
[M:6/4]!8vb(! z!8vb)! fedc gfedc gf |[M:9/4]!8vb(! z!8vb)! dc gfedc gfedc gfedc | %44
[M:6/4]!8vb(! z!8vb)! fedc gfedc gf |!8vb(! z!8vb)! dc gfedc gfed | %46
[M:6/4]!8vb(! z!8vb)! gfedc gfedc g | fe!8vb(! z!8vb)! c gfedc gfe |!8vb(! z4!8vb)! edc gfedc | %49
[M:9/4]!8vb(! z!8vb)! fedc gfedc gfedc gfe |[M:6/4] z c gfedc gfedc |[M:6/4] z fedc gfedc gf | %52
 edc gfedc gfed |[M:4/4][K:bass] x8 | x8 | x8 | x8 |[M:10/8] x10 | x10 |[M:4/4] x8 | x8 | x8 | x8 | %63
 x8 | x8 | x8 | x8 | x8 |] %68
V:4
 x8 | x8 | x8 | x8 | x8 | x8 | x8 | x8 | x8 | x8 | x8 | x8 | x8 | x8 | x8 ||[K:D] x8 | x8 | x8 | %18
 x8 | x8 | x8 | x8 | x8 | x8 | x8 | x8 | x8 | x8 | x8 | x8 | x8 | x8 | x8 | x8 | x8 | x8 | x8 | %37
 x8 |: x8 | x8 :|[M:6/4] [B,B]3 [CDc]3 [CD]3 [Ee]3 |[M:9/4] [Gg]12- [Gg]6 | %42
[M:6/4] [B,B]3 [Cc]3 D3 G3 |[M:9/4] [Ff]12- [Ff]6 |[M:6/4] x12 | [B,B]3 [CDc]3 [CD]3 [Ee]3 | %46
[M:6/4] [Aca]12 | x12 | [Aa]3 [Gg]3 F3 E3 |[M:9/4] d3 x15 |[M:6/4] A,3 x9 |[M:6/4] ^A,12- | A,12 | %53
[M:4/4] x8 | x8 | x8 | x8 |[M:10/8] x10 | x5 gfedc |[M:4/4] gfedc gfe |dc gfedc g |fedc gfed | %62
 c gfedc gf |edc z fedc | gfedc gf z | z2 z3 [ff']3- | [ff']8 | x8 |] %68
V:5
 x8 | x8 | x8 | x8 | x8 | x8 | x8 | x8 | x8 | x8 | x8 | x8 | x8 | x8 | x8 ||[K:D] x8 | x8 | x8 | %18
 x8 | x8 | x8 | x8 | x8 | x8 | x8 | x8 | x8 | x8 | x8 | x8 | x8 | x8 | x8 | x8 | x8 | x8 | x8 | %37
 x8 |: x8 | x8 :|[M:6/4][K:treble]!8vb(! x!8vb)! x5 d3 x3 |[M:9/4]!8vb(! x!8vb)! x17 | %42
[M:6/4]!8vb(! x!8vb)! x5 d3 g3 |[M:9/4]!8vb(! x!8vb)! x17 |[M:6/4]!8vb(! x!8vb)! x11 | %45
!8vb(! x!8vb)! x11 |[M:6/4]!8vb(! x!8vb)! x11 | x2!8vb(! x!8vb)! x9 |!8vb(! x4!8vb)! x2 f3 x3 | %49
[M:9/4]!8vb(! x!8vb)! x17 |[M:6/4] x12 |[M:6/4] x12 | x12 |[M:4/4][K:bass] x8 | x8 | x8 | x8 | %57
[M:10/8] x10 | x10 |[M:4/4] x8 | x8 | x8 | x8 | x8 | x8 | x8 | x8 | x8 |] %68
V:6
 x8 | x8 | x8 | x8 | x8 | x8 | x8 | x8 | x8 | x8 | x8 | x8 | x8 | x8 | x8 ||[K:D] x8 | x8 | x8 | %18
 x8 | x8 | x8 | x8 | x8 | x8 | x8 | x8 | x8 | x8 | x8 | x8 | x8 | x8 | x8 | x8 | x8 | x8 | x8 | %37
 x8 |: x8 | x8 :|[M:6/4] x12 |[M:9/4] x18 |[M:6/4] x12 |[M:9/4] x18 |[M:6/4] x12 | x12 | %46
[M:6/4] x12 | x12 | x12 |[M:9/4] x18 |[M:6/4] x12 |[M:6/4] x12 | x12 |[M:4/4] x8 | x8 | x8 | x8 | %57
[M:10/8] x10 | x10 |[M:4/4] x8 | x8 | x8 | x8 | x3 [_b_b']4 x | x8 | x8 | x8 | x8 |] %68

